X:1
T:19. MODUS LUDENDI PLENO ORGANO PEDALITER.
T:19. MODUS LUDENDI PLENO ORGANO PEDALITER.
T:Eine Manier, auf dem ganzen vollen Werk mit dem Pedal zu spielen.
T:from Tabulatura nova. 1624 Dritter Theil SSWV 157
T:Samuel Scheidt (1587 - 1654) (Descriptive Figuring by Bartók Forever) 
C:Samuel Scheidt
Z:from Tabulatura nova. 1624 Tertia et ultima Pars SSWV 113
%%score { ( 1 2 ) | ( 3 4 ) | ( 5 6 ) }
L:1/8
Q:1/2=46
M:4/2
K:C
V:1 treble nm="Orgel" snm="Org."
V:2 treble 
V:3 alto 
V:4 alto 
V:5 bass 
V:6 bass 
V:1
 A16 | A6 B2 c8 | B4 c4 B8 | A16 | d12 ^c4 | d8 d8 | c16 | _B8 A8 | _B4 A4 G8 | A4 A4 _B4 c4 | %10
 d12 ^c4 | z4 d4 d4 ^c4 | d4 =c4 B4 c4 | B8 A4 A4 | ^F4 G4 A8 | B4 c8 B4 | A8 A8- | A4 G8 F4- | %18
 F4 E4 D4 G4- | G4 F4 E8 | ^F4 G8 A4 | _B8 A4 B4- | B4 d4 _B8 | A4 _B8 A4 | G12 F4 | E4 A8 D4 | %26
 D12 G4 | G12 c4- | c4 c4 ^c4 d4- | d4 ^c4 d8- | d8 d8- | d16- | d16[Q:1/2=40][Q:1/2=30] |] %33
V:2
 F8 E4 E4 | F8 A4 E4 | E16 | E8 F8 | F12 A4 | A4 G4 A8- | A4 A4 G8 | G8 F8 | F4 F4 G4 C4- | %9
 C4 F4 G4 E4 | D6 E2 F4 E4- | E4 A4 A4 A4 | A4 A4 E8 | E8 E8 | D16 | D4 E4 D4 G4- | G4 F4 E8 | %17
 D16 | D4 G8 D4 | z4 D8 ^C4 | D16 | D8 D8 | G4 A4 G8 | ^F4 G8 D4 | D8 z4 A,4 | A,8 A,4 G,4 | %26
 A,8 G,8 | D8 C8- | C4 G8 F4 | A4 E4 ^F4 G4- | G4 ^F4 G8- | G4 A4 G8- | G4 ^F2 E2 F8 |] %33
V:3
 D8 A,8- | A,4 D4 C6 A,2 | B,4 A,4 B,8 | ^C8 D4 D4 | D8 z4 E4 | A4 D4 F8 | F6 C2 C8 | D8 D8 | %8
 z4 C4 C4 G,4 | C8 D4 C4 | G,4 G,4 A,8 | A,8 z4 E4 | F4 E4 E4 C4 | E4 B,4 ^C8 | D4 _B,4 A,8 | %15
 G,4 E,4 G,2 A,2 B,4 | ^C4 D8 =C4- | C4 _B,4 A,4 A,4 | B,4 C8 B,4 | A,16 | A,4 _B,8 A,4 | %21
 G,8 A,4 G,4 | D8 D8 | D12 D4- | D4 G,4 E,4 D,4 | E,8 D,8- | D,4 D8 C4- | C4 _B,8 A,4 | G,8 A,8- | %29
 A,4 A,8 _B,4 | A,8 _B,4 D4- | D4 D4 D8- | D8 D8 |] %33
V:4
 A,8 A,6 G,2 | F,8 E,8 | E,16 | E,8 D,8 | D,8 A,8- | A,4 _B,4 A,8 | A,4 F,8 E,4 | D,4 G,4 A,4 D,4 | %8
 F,4 F,8 E,4 | F,8 z4 A,4 | D,8 z4 E,4- | E,4 F,4 A,8 | A,8 B,4 A,4- | A,4 ^G,4 A,8- | %14
 A,4 =G,8 ^F,4 | G,8 G,8 | E,4 D,4 E,8 | F,4 G,4 A,8 | G,16 | E,4 F,4 A,4 E,4 | D,8 D8 | %21
 _B,4 G,4 ^F,4 G,4 | _B,4 A,4 D4 G,4 | A,4 G,8 A,4 | _B,8 A,8- | A,8 ^F,4 G,4- | G,4 F,8 E,4 | %27
 G,4 G,8 F,4- | F,4 E,4 z4 A,4 | E4 A,8 G,4 | A,8 G,4 _B,4- | B,4 A,4 _B,8- | B,4 A,2 G,2 A,8 |] %33
V:5
 D,8 E,8 | D,4 A,4 A,8 | ^G,4 A,8 G,4 | A,8 F,8- | F,4 F,8 E,4 | D,8 D,4 F,4- | F,4 C,8 C,4 | %7
 G,4 D,4 D,4 F,4 | D,4 C,4 C,8- | C,4 C,4 G,,4 A,,4 | _B,,8 A,,8 | z4 F,4 E,8 | D,4 E,4 E,8 | %13
 E,8 A,,8 | D,16 | D,4 C,4 D,4 G,,4 | A,,8 A,8- | A,4 D,4 D,8- | D,4 C,4 D,8 | ^C,4 D,4 E,4 A,,4- | %20
 A,,4 G,,8 D,4 | D,8 D,4 G,4- | G,4 ^F,4 G,8 | D,4 D,8 D,4 | D,8 ^C,4 D,4- | D,4 =C,8 B,,4 | %26
 A,,8 B,,4 C,4 | D,8 E,4 F,4 | G,4 C,2 D,2 E,4 D,4 | E,8 D,8- | D,8 D,4 D,4- | D,4 D,4 D,8- | %32
 D,8 D,8 |] %33
V:6
 D,12 ^C,4 | D,8 A,,8 | E,,16 | A,,4 A,,4 D,6 C,2 | _B,,8 A,,8 | ^F,,4 G,,4 D,,6 E,,2 | F,,8 C,8 | %7
 G,,8 D,8 | _B,,4 F,,4 C,8 | F,,8 z8 | z8 z4 A,,4 | ^C,4 D,4 A,,8 | D,4 A,,4 ^G,,4 A,,4 | E,,8 z8 | %14
 z8 D,,8 | G,,16 | z8 A,,8 | D,8 D,,8 | G,,16 | A,,16 | D,,4 G,,8 ^F,,4 | G,,8 D,,4 z4 | z16 | %23
 z4 G,,8 ^F,,4 | G,,8 A,,8- | A,,8 D,,8- | D,,8 G,,8- | G,,8 C,8- | C,8 A,,8- | A,,8 D,,8- | %30
 D,,8 G,,4 G,,4- | G,,4 ^F,,4 G,,8- | G,,8 D,,8 |] %33

